hero/outline/inbox-arrow-down.svg

<svg width="24" height="24" viewBox="0 0 24 24" fill="none" xmlns="http://www.w3.org/2000/svg">
<path d="M9 3.75H6.91179C5.92403 3.75 5.05178 4.39423 4.76129 5.33831L2.3495 13.1766C2.28354 13.391 2.25 13.614 2.25 13.8383V18C2.25 19.2426 3.25736 20.25 4.5 20.25H19.5C20.7426 20.25 21.75 19.2426 21.75 18V13.8383C21.75 13.614 21.7165 13.391 21.6505 13.1766L19.2387 5.33831C18.9482 4.39423 18.076 3.75 17.0882 3.75H15M2.25 13.5H6.10942C6.96166 13.5 7.74075 13.9815 8.12188 14.7438L8.37812 15.2562C8.75925 16.0185 9.53834 16.5 10.3906 16.5H13.6094C14.4617 16.5 15.2408 16.0185 15.6219 15.2562L15.8781 14.7438C16.2592 13.9815 17.0383 13.5 17.8906 13.5H21.75M12 3V11.25M12 11.25L9 8.25M12 11.25L15 8.25" stroke="#0F172A" stroke-width="1.5" stroke-linecap="round" stroke-linejoin="round"/>
</svg>

<svg viewBox="0 0 24 24" xmlns="http://www.w3.org/2000/svg"><path fill="none" stroke="#000" stroke-linecap="round" stroke-linejoin="round" stroke-width="1.5" d="M9 3.75H6.912v0c-.99 0-1.86.64-2.15 1.58l-2.42 7.83h0c-.07.21-.1.43-.1.66v4.16 0c0 1.24 1 2.25 2.25 2.25h15v0c1.24 0 2.25-1.01 2.25-2.25v-4.17c0-.23-.04-.45-.1-.67l-2.41-7.84v-.001c-.3-.95-1.17-1.59-2.15-1.59h-2.09m-12.75 9.75h3.86 -.001c.85 0 1.63.48 2.01 1.24l.25.51v0c.38.76 1.16 1.24 2.01 1.24h3.218v0c.85 0 1.63-.49 2.01-1.25l.25-.52v-.001c.38-.77 1.16-1.25 2.01-1.25h3.85m-9.75-10.5v8.25m0 0l-3-3m3 3l3-3"/></svg>
